!!!COM: Keil, Alfredo
!!!CDT: 1850-1907
!!!OTL: National Anthem, Portugal
!!!ENC: Davis, Matthew J.
!!Vocal Line Only
**kern
*clefG2
*k[b-e-a-]
*E-:
*M4/4
=1-
1r
=2
1r
=3
1r
=4
2r
8r
16r
16b-
8.g
16e-
=5
2cc
[4b-
8.b]
16cc
=6
4b-
4a
8.g
16e-
8.d
16e-
=7
2g
8.an
16b-
8.cc
16dd
=8
[2b-
8b-]
8r
8.b-
16dd
=9
2ff
4dd
8b-
8a-
=10
2a
8.g
16g
8.b-
16g
=11
2e-
8e-
8f
8g
8b-
=12
[2f
8f]
8r
4r
=13
4.f
8g
4e-
4e-
=14
4.a-
8b-
4g
8g
8b-
=15
4.ee-
8b-
8b-
4dd-
8cc-
=16
4b-
2f
8r
8a-
=17
4g-
4b-
4b-
8a-
8g
=18
2.f
8r
8a-
=19
4g-
8.b-
16b-
4b-
8a-
8g
=20
4..b-
16b-
4b-
8r
16r
!Chorus
16b-
=21
2ee-
4.dd
16r
16a-
=22
2cc
4b-
8e-
8f
=23
4g
4g
4b-
4g
=24
[2f
8f]
8r
8r
16r
16b-
=25
2ee-
4.dd
16r
16a-
=26
2cc
4b-
6r
6b-
6ee-
=27
2gg
4..ff
16ee-
=28
[2ee-
8ee-]
8g
8a-
8b-
=29
4cc
4cc
4.b-
8b-
=30
[2ee-
8ee-]
8r
4r
==|!
*-
